;FLAVOR:Marlin
;TIME:649
;Filament used: 0.270842m
;Layer height: 0.2
;Generated with Cura_SteamEngine 4.0.0
M140 S110
M105
M190 S110
M104 S230
M105
M109 S230
M82 ;absolute extrusion mode
G28 ;Home
G1 Z15.0 F6000 ;Move the platform down 15mm
;Prime the extruder
G92 E0
G1 F200 E3
G92 E0
G92 E0
G1 F1500 E-6.5
;LAYER_COUNT:97
;LAYER:0
M107
G0 F3600 X115.683 Y117.822 Z0.3
;TYPE:SKIRT
G1 F1500 E0
G1 F1800 X116.247 Y117.272 E0.01852
G1 X116.864 Y116.783 E0.03703
G1 X117.471 Y116.396 E0.05396
G1 X117.547 Y116.312 E0.05662
G1 X118.133 Y115.786 E0.07514
G1 X118.769 Y115.322 E0.09365
G1 X119.448 Y114.925 E0.11215
G1 X120.165 Y114.598 E0.13067
G1 X120.91 Y114.347 E0.14916
G1 X121.678 Y114.172 E0.16768
G1 X122.15 Y114.114 E0.17886
G1 X122.188 Y114.101 E0.17981
G1 X122.955 Y113.923 E0.19832
G1 X123.736 Y113.825 E0.21683
G1 X124.523 Y113.806 E0.23534
G1 X125.223 Y113.856 E0.25184
G1 X125.646 Y113.906 E0.26186
G1 X126.082 Y113.902 E0.27211
G1 X126.865 Y113.975 E0.2906
G1 X127.878 Y114.192 E0.31496
G1 X128.155 Y114.271 E0.32173
G1 X128.9 Y114.525 E0.34024
G1 X129.615 Y114.854 E0.35874
G1 X130.293 Y115.253 E0.37724
G1 X130.678 Y115.535 E0.38846
G1 X130.909 Y115.68 E0.39488
G1 X131.554 Y116.13 E0.41337
G1 X132.151 Y116.644 E0.43189
G1 X132.692 Y117.216 E0.4504
G1 X133.172 Y117.84 E0.46891
G1 X133.398 Y118.205 E0.47901
G1 X133.496 Y118.315 E0.48247
G1 X133.959 Y118.952 E0.50099
G1 X134.354 Y119.633 E0.5195
G1 X134.678 Y120.35 E0.538
G1 X134.927 Y121.097 E0.55652
G1 X135.1 Y121.865 E0.57503
G1 X135.162 Y122.383 E0.58729
G1 X135.354 Y122.769 E0.59743
G1 X135.63 Y123.506 E0.61593
G1 X135.83 Y124.268 E0.63446
G1 X135.952 Y125.045 E0.65295
G1 X135.994 Y125.831 E0.67146
G1 X135.956 Y126.618 E0.68999
G1 X135.816 Y127.506 E0.71112
G1 X135.756 Y127.781 E0.71774
G1 X135.549 Y128.541 E0.73626
G1 X135.267 Y129.275 E0.75475
G1 X134.911 Y129.977 E0.77326
G1 X134.486 Y130.64 E0.79178
G1 X134.149 Y131.063 E0.80449
G1 X133.984 Y131.362 E0.81252
G1 X133.569 Y132.03 E0.83101
G1 X133.088 Y132.653 E0.84952
G1 X132.546 Y133.224 E0.86803
G1 X131.949 Y133.737 E0.88654
G1 X131.303 Y134.187 E0.90505
G1 X130.614 Y134.569 E0.92358
G1 X129.891 Y134.879 E0.94207
G1 X129.14 Y135.114 E0.96057
G1 X128.648 Y135.213 E0.97238
G1 X128.377 Y135.334 E0.97935
G1 X127.63 Y135.58 E0.99785
G1 X126.861 Y135.75 E1.01636
G1 X126.079 Y135.84 E1.03487
G1 X125.292 Y135.851 E1.05338
G1 X124.508 Y135.781 E1.07189
G1 X123.735 Y135.633 E1.09039
G1 X123.574 Y135.585 E1.09434
G1 X123.107 Y135.542 E1.10537
G1 X122.328 Y135.43 E1.12388
G1 X121.564 Y135.241 E1.14238
G1 X120.823 Y134.974 E1.1609
G1 X120.114 Y134.634 E1.17939
G1 X119.442 Y134.224 E1.1979
G1 X118.815 Y133.747 E1.21642
G1 X118.24 Y133.21 E1.23492
G1 X117.723 Y132.617 E1.25342
G1 X117.631 Y132.486 E1.25718
G1 X117.305 Y132.202 E1.26735
G1 X116.768 Y131.626 E1.28587
G1 X116.292 Y130.999 E1.30438
G1 X116.197 Y130.843 E1.30867
G1 X116.146 Y130.798 E1.31027
G1 X115.612 Y130.22 E1.32877
G1 X115.14 Y129.59 E1.34728
G1 X114.591 Y128.637 E1.37314
G1 X114.469 Y128.385 E1.37973
G1 X114.163 Y127.66 E1.39823
G1 X113.931 Y126.908 E1.41673
G1 X113.777 Y126.136 E1.43524
G1 X113.703 Y125.352 E1.45376
G1 X113.705 Y124.977 E1.46258
G1 X113.567 Y123.991 E1.48599
G1 X113.549 Y123.724 E1.49228
G1 X113.536 Y122.937 E1.51079
G1 X113.602 Y122.153 E1.52929
G1 X113.749 Y121.379 E1.54781
G1 X113.972 Y120.625 E1.5663
G1 X114.272 Y119.897 E1.58481
G1 X114.643 Y119.203 E1.60332
G1 X115.095 Y118.535 E1.62228
G1 X115.178 Y118.425 E1.62552
G1 X115.683 Y117.822 E1.64402
G0 F3600 X116.066 Y118.143
G1 F1800 X116.615 Y117.615 E1.66193
G1 X117.215 Y117.147 E1.67982
G1 X117.789 Y116.79 E1.69571
G1 X117.918 Y116.649 E1.70021
G1 X118.486 Y116.143 E1.71809
G1 X119.105 Y115.699 E1.736
G1 X119.767 Y115.323 E1.75391
G1 X120.465 Y115.019 E1.77181
G1 X121.191 Y114.789 E1.78971
G1 X121.937 Y114.636 E1.80762
G1 X122.274 Y114.604 E1.81558
G1 X122.422 Y114.555 E1.81924
G1 X123.166 Y114.395 E1.83714
G1 X123.923 Y114.314 E1.85504
G1 X124.684 Y114.312 E1.87293
G1 X125.165 Y114.353 E1.88428
G1 X125.565 Y114.4 E1.89375
G1 X126.26 Y114.413 E1.9101
G1 X127.016 Y114.506 E1.92801
G1 X127.74 Y114.673 E1.94548
G1 X128.017 Y114.752 E1.95225
G1 X128.738 Y114.999 E1.97017
G1 X129.428 Y115.32 E1.98807
G1 X130.081 Y115.712 E2.00597
G1 X130.393 Y115.947 E2.01516
G1 X130.644 Y116.104 E2.02212
G1 X131.267 Y116.541 E2.04001
G1 X131.841 Y117.041 E2.05791
G1 X132.36 Y117.598 E2.07581
G1 X132.817 Y118.207 E2.09372
G1 X132.998 Y118.51 E2.10202
G1 X133.138 Y118.668 E2.10698
G1 X133.58 Y119.288 E2.12488
G1 X133.954 Y119.951 E2.14278
G1 X134.257 Y120.649 E2.16067
G1 X134.484 Y121.376 E2.17858
G1 X134.635 Y122.122 E2.19648
G1 X134.672 Y122.515 E2.20576
G1 X134.934 Y123.06 E2.21998
G1 X135.19 Y123.777 E2.23788
G1 X135.37 Y124.517 E2.25579
G1 X135.471 Y125.272 E2.2737
G1 X135.492 Y126.033 E2.2916
G1 X135.433 Y126.792 E2.3095
G1 X135.327 Y127.399 E2.32399
G1 X135.267 Y127.674 E2.3306
G1 X135.066 Y128.409 E2.34852
G1 X134.789 Y129.118 E2.36642
G1 X134.439 Y129.794 E2.38432
G1 X134.021 Y130.43 E2.40221
G1 X133.74 Y130.771 E2.4126
G1 X133.547 Y131.12 E2.42198
G1 X133.144 Y131.766 E2.43988
G1 X132.675 Y132.366 E2.45779
G1 X132.146 Y132.913 E2.47568
G1 X131.563 Y133.402 E2.49357
G1 X130.932 Y133.828 E2.51147
G1 X130.259 Y134.184 E2.52938
G1 X129.553 Y134.469 E2.54728
G1 X128.821 Y134.677 E2.56517
G1 X128.479 Y134.741 E2.57335
G1 X128.15 Y134.886 E2.58181
G1 X127.425 Y135.118 E2.59971
G1 X126.68 Y135.272 E2.61759
G1 X125.922 Y135.348 E2.63551
G1 X125.161 Y135.344 E2.6534
G1 X124.404 Y135.26 E2.67131
G1 X123.66 Y135.097 E2.68922
G1 X123.632 Y135.088 E2.68991
G1 X123.153 Y135.044 E2.70122
G1 X122.399 Y134.935 E2.71913
G1 X121.661 Y134.747 E2.73704
G1 X120.947 Y134.484 E2.75493
G1 X120.265 Y134.146 E2.77283
G1 X119.621 Y133.739 E2.79074
G1 X119.024 Y133.267 E2.80863
G1 X118.48 Y132.735 E2.82653
G1 X117.994 Y132.149 E2.84443
G1 X117.981 Y132.129 E2.84499
G1 X117.617 Y131.808 E2.8564
G1 X117.102 Y131.247 E2.87431
G1 X116.649 Y130.635 E2.89221
G1 X116.572 Y130.504 E2.89578
G1 X116.425 Y130.371 E2.90044
G1 X115.917 Y129.803 E2.91836
G1 X115.472 Y129.186 E2.93625
G1 X115.042 Y128.419 E2.95692
G1 X114.92 Y128.167 E2.96351
G1 X114.624 Y127.465 E2.98142
G1 X114.404 Y126.737 E2.9993
G1 X114.262 Y125.989 E3.0172
G1 X114.198 Y125.23 E3.03511
G1 X114.205 Y124.936 E3.04203
G1 X114.172 Y124.801 E3.0453
G1 X114.065 Y123.958 E3.06528
G1 X114.047 Y123.691 E3.07157
G1 X114.036 Y122.929 E3.08949
G1 X114.105 Y122.171 E3.10738
G1 X114.253 Y121.424 E3.12529
G1 X114.478 Y120.697 E3.14318
G1 X114.778 Y119.998 E3.16107
G1 X115.15 Y119.333 E3.17899
G1 X115.494 Y118.836 E3.1932
G1 X115.577 Y118.726 E3.19644
G1 X116.066 Y118.143 E3.21433
G0 F3600 X116.449 Y118.466
G1 F1800 X116.981 Y117.959 E3.23161
G1 X117.565 Y117.513 E3.24889
G1 X118.1 Y117.19 E3.26358
G1 X118.287 Y116.986 E3.27009
G1 X118.839 Y116.501 E3.28737
G1 X119.44 Y116.079 E3.30464
G1 X120.084 Y115.725 E3.32191
G1 X120.762 Y115.442 E3.33919
G1 X121.467 Y115.235 E3.35647
G1 X122.19 Y115.106 E3.37373
G1 X122.391 Y115.093 E3.37847
G1 X122.652 Y115.011 E3.3849
G1 X123.373 Y114.869 E3.40218
G1 X124.105 Y114.806 E3.41946
G1 X125.106 Y114.85 E3.44302
G1 X125.56 Y114.904 E3.45377
G1 X125.697 Y114.895 E3.457
G1 X126.431 Y114.929 E3.47427
G1 X127.156 Y115.043 E3.49153
G1 X127.603 Y115.154 E3.50236
G1 X127.88 Y115.233 E3.50913
G1 X128.575 Y115.472 E3.52641
G1 X129.239 Y115.786 E3.54368
G1 X129.865 Y116.17 E3.56095
G1 X130.103 Y116.354 E3.56802
G1 X130.379 Y116.527 E3.57568
G1 X130.979 Y116.95 E3.59294
G1 X131.531 Y117.436 E3.61024
G1 X132.026 Y117.979 E3.62751
G1 X132.459 Y118.572 E3.64478
G1 X132.595 Y118.809 E3.6512
G1 X132.779 Y119.019 E3.65777
G1 X133.199 Y119.622 E3.67505
G1 X133.552 Y120.266 E3.69232
G1 X133.832 Y120.945 E3.70959
G1 X134.037 Y121.651 E3.72687
G1 X134.164 Y122.374 E3.74413
G1 X134.182 Y122.649 E3.75061
G1 X134.202 Y122.682 E3.75152
G1 X134.512 Y123.348 E3.76879
G1 X134.747 Y124.044 E3.78607
G1 X134.905 Y124.762 E3.80335
G1 X134.984 Y125.492 E3.82062
G1 X134.984 Y126.227 E3.8379
G1 X134.839 Y127.293 E3.86319
G1 X134.779 Y127.568 E3.86981
G1 X134.583 Y128.276 E3.88709
G1 X134.312 Y128.959 E3.90436
G1 X133.968 Y129.608 E3.92163
G1 X133.556 Y130.216 E3.9389
G1 X133.324 Y130.488 E3.94731
G1 X133.322 Y130.493 E3.94744
G1 X133.109 Y130.878 E3.95778
G1 X132.719 Y131.5 E3.97504
G1 X132.264 Y132.077 E3.99232
G1 X131.749 Y132.6 E4.00958
G1 X131.179 Y133.064 E4.02686
G1 X130.563 Y133.464 E4.04413
G1 X129.907 Y133.795 E4.06141
G1 X129.219 Y134.052 E4.07868
G1 X128.36 Y134.247 E4.09939
G1 X127.925 Y134.436 E4.11054
G1 X127.223 Y134.653 E4.12782
G1 X126.502 Y134.793 E4.14509
G1 X125.77 Y134.853 E4.16236
G1 X125.035 Y134.834 E4.17965
G1 X124.307 Y134.735 E4.19692
G1 X123.755 Y134.597 E4.2103
G1 X123.198 Y134.546 E4.22345
G1 X122.472 Y134.439 E4.24071
G1 X121.761 Y134.254 E4.25798
G1 X121.074 Y133.993 E4.27526
G1 X120.42 Y133.659 E4.29253
G1 X119.806 Y133.256 E4.3098
G1 X119.239 Y132.788 E4.32708
G1 X118.727 Y132.262 E4.34434
G1 X118.377 Y131.813 E4.35773
G1 X117.931 Y131.414 E4.3718
G1 X117.439 Y130.868 E4.38908
G1 X117.01 Y130.272 E4.40635
G1 X116.955 Y130.175 E4.40897
G1 X116.707 Y129.944 E4.41694
G1 X116.227 Y129.389 E4.43419
G1 X115.81 Y128.784 E4.45147
G1 X115.492 Y128.201 E4.46709
G1 X115.37 Y127.949 E4.47367
G1 X115.086 Y127.272 E4.49093
G1 X114.878 Y126.567 E4.50821
G1 X114.747 Y125.844 E4.52549
G1 X114.696 Y125.112 E4.54274
G1 X114.706 Y124.868 E4.54849
G1 X114.629 Y124.505 E4.55721
G1 X114.564 Y123.924 E4.57096
G1 X114.546 Y123.657 E4.57725
G1 X114.537 Y122.923 E4.59451
G1 X114.607 Y122.191 E4.6118
G1 X114.757 Y121.472 E4.62907
G1 X114.983 Y120.773 E4.64634
G1 X115.285 Y120.103 E4.66362
G1 X115.657 Y119.47 E4.68089
G1 X115.893 Y119.137 E4.69048
G1 X115.976 Y119.027 E4.69372
G1 X116.449 Y118.466 E4.71098
G0 F3600 X116.832 Y118.789
G1 F1800 X117.347 Y118.305 E4.7276
G1 X117.913 Y117.882 E4.74421
G1 X118.411 Y117.592 E4.75776
G1 X118.657 Y117.325 E4.7663
G1 X119.19 Y116.861 E4.78291
G1 X119.773 Y116.461 E4.79954
G1 X120.397 Y116.13 E4.81615
G1 X121.055 Y115.871 E4.83277
G1 X121.738 Y115.688 E4.8494
G1 X122.437 Y115.583 E4.86602
G1 X122.501 Y115.582 E4.86753
G1 X122.879 Y115.47 E4.87679
G1 X123.575 Y115.347 E4.89341
G1 X124.28 Y115.303 E4.91002
G1 X125.048 Y115.346 E4.92811
G1 X125.568 Y115.407 E4.94042
G1 X125.888 Y115.396 E4.94795
G1 X126.593 Y115.452 E4.96458
G1 X127.466 Y115.635 E4.98555
G1 X127.743 Y115.714 E4.99232
G1 X128.411 Y115.946 E5.00895
G1 X129.048 Y116.252 E5.02557
G1 X129.647 Y116.627 E5.04218
G1 X129.831 Y116.774 E5.04772
G1 X130.114 Y116.951 E5.05557
G1 X130.691 Y117.359 E5.07219
G1 X131.218 Y117.83 E5.08881
G1 X131.689 Y118.357 E5.10542
G1 X132.097 Y118.934 E5.12204
G1 X132.194 Y119.11 E5.12677
G1 X132.418 Y119.37 E5.13484
G1 X132.816 Y119.953 E5.15143
G1 X133.146 Y120.579 E5.16807
G1 X133.403 Y121.237 E5.18468
G1 X133.584 Y121.92 E5.2013
G1 X133.687 Y122.619 E5.21791
G1 X133.693 Y122.81 E5.2224
G1 X133.798 Y122.988 E5.22726
G1 X134.086 Y123.634 E5.24389
G1 X134.3 Y124.307 E5.2605
G1 X134.436 Y125.001 E5.27713
G1 X134.492 Y125.706 E5.29376
G1 X134.469 Y126.412 E5.31036
G1 X134.35 Y127.186 E5.32878
G1 X134.29 Y127.461 E5.3354
G1 X134.101 Y128.142 E5.35201
G1 X133.836 Y128.797 E5.36863
G1 X133.498 Y129.419 E5.38527
G1 X133.093 Y129.998 E5.40189
G1 X132.905 Y130.211 E5.40857
G1 X132.885 Y130.251 E5.40962
G1 X132.672 Y130.636 E5.41996
G1 X132.295 Y131.234 E5.43659
G1 X131.854 Y131.786 E5.4532
G1 X131.352 Y132.284 E5.46983
G1 X130.798 Y132.723 E5.48645
G1 X130.198 Y133.096 E5.50306
G1 X129.559 Y133.399 E5.51969
G1 X128.891 Y133.628 E5.53629
G1 X128.197 Y133.775 E5.55297
G1 X127.701 Y133.986 E5.56564
G1 X127.023 Y134.187 E5.58227
G1 X126.328 Y134.311 E5.59887
G1 X125.622 Y134.356 E5.61551
G1 X124.916 Y134.321 E5.63213
G1 X124.219 Y134.206 E5.64874
G1 X123.861 Y134.104 E5.65749
G1 X123.244 Y134.048 E5.67206
G1 X122.545 Y133.944 E5.68867
G1 X121.862 Y133.762 E5.70529
G1 X121.204 Y133.503 E5.72192
G1 X120.579 Y133.172 E5.73855
G1 X119.996 Y132.773 E5.75516
G1 X119.462 Y132.311 E5.77176
G1 X118.983 Y131.791 E5.78839
G1 X118.765 Y131.492 E5.79709
G1 X118.246 Y131.022 E5.81355
G1 X117.779 Y130.492 E5.83016
G1 X117.374 Y129.912 E5.84679
G1 X117.343 Y129.855 E5.84832
G1 X116.994 Y129.52 E5.8597
G1 X116.542 Y128.976 E5.87633
G1 X116.154 Y128.385 E5.89295
G1 X115.942 Y127.983 E5.90364
G1 X115.82 Y127.731 E5.91022
G1 X115.548 Y127.079 E5.92683
G1 X115.352 Y126.4 E5.94345
G1 X115.234 Y125.703 E5.96007
G1 X115.195 Y124.997 E5.97669
G1 X115.205 Y124.827 E5.9807
G1 X115.063 Y123.89 E6.00298
G1 X115.045 Y123.623 E6.00927
G1 X115.038 Y122.917 E6.02588
G1 X115.11 Y122.213 E6.04252
G1 X115.261 Y121.523 E6.05912
G1 X115.489 Y120.854 E6.07574
G1 X115.791 Y120.215 E6.09236
G1 X116.292 Y119.439 E6.11408
G1 X116.375 Y119.329 E6.11732
G1 X116.832 Y118.789 E6.13395
G0 F3600 X117.214 Y119.114
G1 F1800 X117.711 Y118.653 E6.14989
G1 X118.259 Y118.254 E6.16583
G1 X118.718 Y117.996 E6.17821
G1 X119.025 Y117.664 E6.18884
G1 X119.54 Y117.223 E6.20479
G1 X120.104 Y116.846 E6.22074
G1 X120.708 Y116.538 E6.23668
G1 X121.344 Y116.304 E6.25261
G1 X122.003 Y116.145 E6.26855
G1 X122.581 Y116.077 E6.28224
G1 X123.102 Y115.932 E6.29495
G1 X123.772 Y115.829 E6.31089
G1 X124.449 Y115.805 E6.32682
G1 X124.989 Y115.843 E6.33955
G1 X125.52 Y115.906 E6.35212
G1 X126.071 Y115.904 E6.36508
G1 X126.744 Y115.981 E6.38101
G1 X127.329 Y116.115 E6.39512
G1 X127.606 Y116.194 E6.40189
G1 X128.246 Y116.419 E6.41784
G1 X128.855 Y116.716 E6.43377
G1 X129.425 Y117.084 E6.44973
G1 X129.556 Y117.192 E6.45372
G1 X129.848 Y117.375 E6.46182
G1 X130.401 Y117.768 E6.47777
G1 X130.903 Y118.223 E6.4937
G1 X131.349 Y118.734 E6.50965
G1 X131.731 Y119.294 E6.52559
G1 X131.789 Y119.406 E6.52856
G1 X132.055 Y119.718 E6.5382
G1 X132.43 Y120.283 E6.55414
G1 X132.736 Y120.888 E6.57008
G1 X132.969 Y121.524 E6.58601
G1 X133.125 Y122.184 E6.60196
G1 X133.203 Y122.858 E6.61791
G1 X133.203 Y122.962 E6.62036
G1 X133.391 Y123.291 E6.62927
G1 X133.657 Y123.915 E6.64522
G1 X133.848 Y124.566 E6.66117
G1 X133.961 Y125.234 E6.6771
G1 X133.994 Y125.911 E6.69303
G1 X133.947 Y126.588 E6.70899
G1 X133.862 Y127.08 E6.72073
G1 X133.802 Y127.355 E6.72735
G1 X133.619 Y128.007 E6.74327
G1 X133.36 Y128.634 E6.75922
G1 X133.029 Y129.226 E6.77517
G1 X132.631 Y129.774 E6.7911
G1 X132.488 Y129.929 E6.79606
G1 X132.447 Y130.009 E6.79817
G1 X132.234 Y130.394 E6.80851
G1 X131.872 Y130.966 E6.82443
G1 X131.444 Y131.493 E6.84039
G1 X130.958 Y131.965 E6.85632
G1 X130.419 Y132.376 E6.87226
G1 X129.836 Y132.722 E6.8882
G1 X129.216 Y132.996 E6.90414
G1 X128.568 Y133.196 E6.92009
G1 X128.05 Y133.296 E6.93249
G1 X127.479 Y133.534 E6.94704
G1 X126.827 Y133.719 E6.96297
G1 X126.158 Y133.827 E6.97891
G1 X125.48 Y133.855 E6.99486
G1 X124.804 Y133.803 E7.0108
G1 X124.139 Y133.672 E7.02674
G1 X123.947 Y133.61 E7.03149
G1 X123.289 Y133.55 E7.04702
G1 X122.619 Y133.449 E7.06295
G1 X121.965 Y133.269 E7.0789
G1 X121.337 Y133.014 E7.09484
G1 X120.744 Y132.686 E7.11077
G1 X120.193 Y132.291 E7.12671
G1 X119.692 Y131.834 E7.14266
G1 X119.249 Y131.321 E7.1586
G1 X119.122 Y131.133 E7.16393
G1 X119.062 Y131.09 E7.16567
G1 X118.563 Y130.632 E7.18159
G1 X118.121 Y130.118 E7.19753
G1 X117.743 Y129.555 E7.21348
G1 X117.74 Y129.549 E7.21364
G1 X117.285 Y129.097 E7.22872
G1 X116.863 Y128.567 E7.24465
G1 X116.392 Y127.766 E7.26649
G1 X116.27 Y127.514 E7.27308
G1 X116.011 Y126.887 E7.28903
G1 X115.827 Y126.234 E7.30498
G1 X115.722 Y125.565 E7.3209
G1 X115.696 Y124.887 E7.33686
G1 X115.705 Y124.769 E7.33964
G1 X115.663 Y124.608 E7.34355
