;FLAVOR:Marlin
;TIME:481
;Filament used: 0.0856906m
;Layer height: 0.2
;Generated with Cura_SteamEngine 4.0.0
M140 S110
M105
M190 S110
M104 S230
M105
M109 S230
M82 ;absolute extrusion mode
G28 ;Home
G1 Z15.0 F6000 ;Move the platform down 15mm
;Prime the extruder
G92 E0
G1 F200 E3
G92 E0
G92 E0
G1 F1500 E-6.5
;LAYER_COUNT:128
;LAYER:0
M107
G0 F3600 X119.302 Y116.966 Z0.3
;TYPE:SKIRT
G1 F1500 E0
G1 F1800 X119.878 Y116.429 E0.01852
G1 X120.506 Y115.954 E0.03703
G1 X121.125 Y115.575 E0.0541
G1 X121.528 Y115.353 E0.06492
G1 X122.235 Y115.009 E0.0834
G1 X123.148 Y114.686 E0.10617
G1 X123.63 Y114.549 E0.11796
G1 X124.397 Y114.373 E0.13646
G1 X125.178 Y114.275 E0.15497
G1 X125.681 Y114.254 E0.1668
G1 X126.249 Y114.249 E0.18016
G1 X127.035 Y114.282 E0.19866
G1 X127.814 Y114.395 E0.21717
G1 X128.742 Y114.638 E0.23972
G1 X129.258 Y114.808 E0.2525
G1 X129.992 Y115.092 E0.271
G1 X130.694 Y115.449 E0.28952
G1 X131.519 Y115.996 E0.3128
G1 X131.926 Y116.305 E0.32481
G1 X132.528 Y116.813 E0.34333
G1 X133.076 Y117.378 E0.36184
G1 X133.497 Y117.905 E0.3777
G1 X133.736 Y118.232 E0.38722
G1 X134.168 Y118.89 E0.40573
G1 X134.53 Y119.589 E0.42424
G1 X134.728 Y120.065 E0.43636
G1 X134.869 Y120.438 E0.44574
G1 X135.11 Y121.187 E0.46424
G1 X135.273 Y121.957 E0.48275
G1 X135.345 Y122.557 E0.49695
G1 X135.381 Y123.005 E0.50752
G1 X135.404 Y123.792 E0.52604
G1 X135.347 Y124.577 E0.54454
G1 X135.211 Y125.352 E0.56304
G1 X135.1 Y125.783 E0.57351
G1 X134.945 Y126.318 E0.5866
G1 X134.688 Y127.062 E0.60511
G1 X134.356 Y127.776 E0.62363
G1 X133.954 Y128.452 E0.64212
G1 X133.63 Y128.904 E0.6552
G1 X133.274 Y129.364 E0.66887
G1 X132.761 Y129.961 E0.68738
G1 X132.191 Y130.504 E0.70589
G1 X131.568 Y130.985 E0.7244
G1 X131.17 Y131.244 E0.73556
G1 X130.543 Y131.625 E0.75282
G1 X129.85 Y131.999 E0.77133
G1 X129.123 Y132.301 E0.78984
G1 X128.141 Y132.58 E0.81385
G1 X127.45 Y132.728 E0.83046
G1 X126.673 Y132.854 E0.84897
G1 X125.887 Y132.9 E0.86748
G1 X125.136 Y132.869 E0.88516
G1 X124.466 Y132.809 E0.90097
G1 X123.686 Y132.699 E0.9195
G1 X122.922 Y132.511 E0.938
G1 X122.533 Y132.382 E0.94763
G1 X122.18 Y132.255 E0.95645
G1 X121.454 Y131.952 E0.97495
G1 X120.763 Y131.576 E0.99345
G1 X120.417 Y131.352 E1.00314
G1 X120.066 Y131.111 E1.01315
G1 X119.441 Y130.633 E1.03165
G1 X118.867 Y130.094 E1.05017
G1 X118.329 Y129.472 E1.0695
G1 X118.08 Y129.151 E1.07906
G1 X117.63 Y128.505 E1.09757
G1 X117.248 Y127.817 E1.11607
G1 X116.873 Y126.914 E1.13906
G1 X116.739 Y126.523 E1.14878
G1 X116.522 Y125.766 E1.1673
G1 X116.382 Y124.991 E1.18581
G1 X116.321 Y123.86 E1.21245
G1 X116.331 Y123.342 E1.22463
G1 X116.387 Y122.557 E1.24313
G1 X116.521 Y121.782 E1.26163
G1 X116.734 Y121.024 E1.28014
G1 X116.904 Y120.565 E1.29165
G1 X117.13 Y120.011 E1.30572
G1 X117.464 Y119.298 E1.32423
G1 X117.869 Y118.623 E1.34274
G1 X118.34 Y117.992 E1.36125
G1 X118.744 Y117.541 E1.37549
G1 X119.302 Y116.966 E1.39433
G0 F3600 X119.661 Y117.314
G1 F1800 X120.219 Y116.796 E1.41223
G1 X120.829 Y116.34 E1.43014
G1 X121.366 Y116.013 E1.44492
G1 X121.769 Y115.791 E1.45574
G1 X122.454 Y115.459 E1.47364
G1 X123.285 Y115.167 E1.49435
G1 X123.767 Y115.03 E1.50613
G1 X124.509 Y114.861 E1.52403
G1 X125.265 Y114.77 E1.54193
G1 X125.685 Y114.754 E1.55181
G1 X126.253 Y114.749 E1.56517
G1 X127.014 Y114.783 E1.58308
G1 X127.767 Y114.895 E1.60098
G1 X128.586 Y115.113 E1.62091
G1 X129.102 Y115.283 E1.63368
G1 X129.811 Y115.559 E1.65157
G1 X130.488 Y115.908 E1.66948
G1 X131.217 Y116.395 E1.6901
G1 X131.624 Y116.704 E1.70211
G1 X132.205 Y117.195 E1.72
G1 X132.732 Y117.745 E1.73791
G1 X133.093 Y118.2 E1.75157
G1 X133.332 Y118.527 E1.76109
G1 X133.749 Y119.164 E1.77899
G1 X134.096 Y119.842 E1.7969
G1 X134.261 Y120.241 E1.80705
G1 X134.402 Y120.614 E1.81643
G1 X134.633 Y121.34 E1.83434
G1 X134.787 Y122.085 E1.85223
G1 X134.847 Y122.597 E1.86435
G1 X134.883 Y123.045 E1.87492
G1 X134.904 Y123.806 E1.89282
G1 X134.845 Y124.565 E1.91072
G1 X134.62 Y125.644 E1.93664
G1 X134.465 Y126.179 E1.94973
G1 X134.215 Y126.898 E1.96763
G1 X133.891 Y127.587 E1.98553
G1 X133.496 Y128.238 E2.00344
G1 X133.235 Y128.598 E2.01389
G1 X132.879 Y129.058 E2.02757
G1 X132.382 Y129.635 E2.04548
G1 X131.827 Y130.157 E2.06339
G1 X130.91 Y130.817 E2.08996
G1 X130.283 Y131.198 E2.10721
G1 X129.612 Y131.558 E2.12511
G1 X128.908 Y131.847 E2.14301
G1 X128.036 Y132.091 E2.1643
G1 X127.345 Y132.239 E2.18091
G1 X126.594 Y132.359 E2.1988
G1 X125.833 Y132.4 E2.21672
G1 X125.18 Y132.371 E2.23208
G1 X124.51 Y132.311 E2.2479
G1 X123.757 Y132.203 E2.26579
G1 X122.703 Y131.912 E2.2915
G1 X122.35 Y131.785 E2.30032
G1 X121.648 Y131.49 E2.31822
G1 X120.7 Y130.94 E2.34399
G1 X120.349 Y130.699 E2.35401
G1 X119.745 Y130.236 E2.3719
G1 X119.193 Y129.711 E2.38981
G1 X118.724 Y129.166 E2.40672
G1 X118.475 Y128.845 E2.41627
G1 X118.041 Y128.219 E2.43418
G1 X117.675 Y127.552 E2.45207
G1 X117.346 Y126.751 E2.47243
G1 X117.212 Y126.36 E2.48215
G1 X117.003 Y125.628 E2.50005
G1 X116.872 Y124.878 E2.51795
G1 X116.821 Y123.87 E2.54168
G1 X116.831 Y123.352 E2.55387
G1 X116.886 Y122.593 E2.57176
G1 X117.02 Y121.843 E2.58967
G1 X117.232 Y121.112 E2.60757
G1 X117.367 Y120.754 E2.61657
G1 X117.593 Y120.2 E2.63063
G1 X117.917 Y119.511 E2.64854
G1 X118.312 Y118.86 E2.66644
G1 X118.773 Y118.254 E2.68434
G1 X119.103 Y117.889 E2.69591
G1 X119.661 Y117.314 E2.71475
G0 F3600 X120.02 Y117.662
G1 F1800 X120.559 Y117.164 E2.73201
G1 X121.15 Y116.727 E2.74929
G1 X121.607 Y116.451 E2.76184
G1 X122.01 Y116.229 E2.77266
G1 X122.672 Y115.91 E2.78994
G1 X123.422 Y115.648 E2.80862
G1 X123.904 Y115.511 E2.8204
G1 X124.62 Y115.349 E2.83767
G1 X125.69 Y115.254 E2.86292
G1 X126.258 Y115.249 E2.87628
G1 X126.991 Y115.283 E2.89353
G1 X127.717 Y115.396 E2.91081
G1 X128.429 Y115.588 E2.92815
G1 X128.945 Y115.758 E2.94092
G1 X129.629 Y116.025 E2.95819
G1 X130.28 Y116.366 E2.97547
G1 X130.915 Y116.793 E2.99346
G1 X131.322 Y117.102 E3.00548
G1 X131.882 Y117.577 E3.02274
G1 X132.387 Y118.111 E3.04002
G1 X132.69 Y118.495 E3.05152
G1 X132.929 Y118.822 E3.06105
G1 X133.329 Y119.438 E3.07832
G1 X133.793 Y120.418 E3.10381
G1 X133.934 Y120.791 E3.11319
G1 X134.156 Y121.491 E3.13046
G1 X134.3 Y122.212 E3.14774
G1 X134.348 Y122.637 E3.1578
G1 X134.384 Y123.085 E3.16837
G1 X134.403 Y123.82 E3.18566
G1 X134.342 Y124.552 E3.20293
G1 X134.139 Y125.504 E3.22582
G1 X133.984 Y126.039 E3.23891
G1 X133.742 Y126.733 E3.25619
G1 X133.425 Y127.396 E3.27347
G1 X132.839 Y128.292 E3.29865
G1 X132.483 Y128.752 E3.31232
G1 X132.003 Y129.308 E3.3296
G1 X131.465 Y129.808 E3.34687
G1 X130.65 Y130.39 E3.37041
G1 X130.023 Y130.771 E3.38766
G1 X129.376 Y131.117 E3.40492
G1 X128.694 Y131.392 E3.42221
G1 X127.932 Y131.602 E3.44079
G1 X127.241 Y131.75 E3.45741
G1 X126.515 Y131.865 E3.47469
G1 X125.781 Y131.9 E3.49197
G1 X125.225 Y131.873 E3.50506
G1 X124.555 Y131.813 E3.52088
G1 X123.828 Y131.708 E3.53815
G1 X122.872 Y131.441 E3.56149
G1 X122.519 Y131.314 E3.57031
G1 X121.842 Y131.029 E3.58758
G1 X120.983 Y130.528 E3.61096
G1 X120.632 Y130.287 E3.62097
G1 X120.05 Y129.838 E3.63826
G1 X119.52 Y129.33 E3.65552
G1 X119.12 Y128.859 E3.67005
G1 X118.871 Y128.538 E3.6796
G1 X118.453 Y127.934 E3.69687
G1 X118.103 Y127.288 E3.71415
G1 X117.819 Y126.589 E3.73189
G1 X117.685 Y126.198 E3.74161
G1 X117.485 Y125.492 E3.75886
G1 X117.363 Y124.767 E3.77615
G1 X117.321 Y123.88 E3.79703
G1 X117.331 Y123.362 E3.80921
G1 X117.385 Y122.629 E3.82649
G1 X117.519 Y121.907 E3.84376
G1 X117.83 Y120.942 E3.8676
G1 X118.056 Y120.388 E3.88166
G1 X118.37 Y119.724 E3.89893
G1 X118.754 Y119.098 E3.9162
G1 X119.205 Y118.518 E3.93348
G1 X119.462 Y118.237 E3.94243
G1 X120.02 Y117.662 E3.96127
G0 F3600 X120.379 Y118.01
G1 F1800 X120.899 Y117.532 E3.97788
G1 X121.47 Y117.115 E3.9945
G1 X121.848 Y116.889 E4.00486
G1 X122.251 Y116.667 E4.01568
G1 X122.889 Y116.361 E4.03232
G1 X123.558 Y116.129 E4.04896
G1 X124.04 Y115.992 E4.06075
G1 X124.73 Y115.838 E4.07737
G1 X125.694 Y115.754 E4.10012
G1 X126.262 Y115.749 E4.11348
G1 X126.968 Y115.783 E4.1301
G1 X127.666 Y115.896 E4.14672
G1 X128.273 Y116.063 E4.16153
G1 X128.789 Y116.233 E4.1743
G1 X129.446 Y116.492 E4.19091
G1 X130.071 Y116.823 E4.20754
G1 X130.612 Y117.191 E4.22292
G1 X131.019 Y117.5 E4.23494
G1 X131.557 Y117.959 E4.25156
G1 X132.04 Y118.475 E4.26818
G1 X132.286 Y118.79 E4.27758
G1 X132.525 Y119.117 E4.2871
G1 X132.909 Y119.71 E4.30372
G1 X133.325 Y120.595 E4.32671
G1 X133.466 Y120.968 E4.33609
G1 X133.678 Y121.642 E4.3527
G1 X133.85 Y122.677 E4.37737
G1 X133.886 Y123.125 E4.38794
G1 X133.903 Y123.832 E4.40457
G1 X133.839 Y124.536 E4.42119
G1 X133.659 Y125.365 E4.44113
G1 X133.504 Y125.9 E4.45423
G1 X133.269 Y126.567 E4.47086
G1 X132.961 Y127.203 E4.48747
G1 X132.444 Y127.986 E4.50954
G1 X132.088 Y128.446 E4.52321
G1 X131.624 Y128.98 E4.53985
G1 X131.103 Y129.458 E4.55647
G1 X130.391 Y129.962 E4.57698
G1 X129.764 Y130.343 E4.59423
G1 X129.14 Y130.676 E4.61087
G1 X128.482 Y130.935 E4.62749
G1 X127.827 Y131.113 E4.64345
G1 X127.136 Y131.261 E4.66007
G1 X126.438 Y131.37 E4.67668
G1 X125.731 Y131.399 E4.69332
G1 X125.27 Y131.375 E4.70417
G1 X124.6 Y131.315 E4.71999
G1 X123.9 Y131.212 E4.73663
G1 X123.041 Y130.971 E4.7576
G1 X122.688 Y130.844 E4.76642
G1 X122.038 Y130.567 E4.78304
G1 X121.266 Y130.115 E4.80407
G1 X120.915 Y129.874 E4.81408
G1 X120.356 Y129.442 E4.83069
G1 X119.849 Y128.949 E4.84732
G1 X119.515 Y128.553 E4.8595
G1 X119.266 Y128.232 E4.86906
G1 X118.865 Y127.65 E4.88567
G1 X118.532 Y127.026 E4.90231
G1 X118.292 Y126.427 E4.91748
G1 X118.158 Y126.036 E4.9272
G1 X117.967 Y125.356 E4.9438
G1 X117.854 Y124.658 E4.96043
G1 X117.821 Y123.889 E4.97853
G1 X117.831 Y123.371 E4.99071
G1 X117.885 Y122.667 E5.00731
G1 X118.018 Y121.972 E5.02395
G1 X118.293 Y121.131 E5.04476
G1 X118.519 Y120.577 E5.05882
G1 X118.823 Y119.939 E5.07544
G1 X119.196 Y119.339 E5.09205
G1 X119.821 Y118.585 E5.11508
G1 X120.379 Y118.01 E5.13392
G0 F3600 X120.738 Y118.359
G1 F1800 X121.238 Y117.901 E5.14986
G1 X121.788 Y117.505 E5.1658
G1 X122.09 Y117.327 E5.17404
G1 X122.493 Y117.105 E5.18486
G1 X123.105 Y116.813 E5.20081
G1 X123.695 Y116.61 E5.21548
G1 X124.177 Y116.473 E5.22726
G1 X124.839 Y116.326 E5.2432
G1 X125.698 Y116.254 E5.26347
G1 X126.266 Y116.249 E5.27683
G1 X126.943 Y116.283 E5.29277
G1 X127.612 Y116.397 E5.30872
G1 X128.116 Y116.538 E5.32103
G1 X128.632 Y116.708 E5.3338
G1 X129.263 Y116.957 E5.34975
G1 X129.859 Y117.28 E5.36569
G1 X130.31 Y117.589 E5.37855
G1 X130.717 Y117.898 E5.39056
G1 X131.232 Y118.339 E5.40651
G1 X131.882 Y119.085 E5.42977
G1 X132.121 Y119.412 E5.43929
G1 X132.488 Y119.982 E5.45523
G1 X132.858 Y120.772 E5.47575
G1 X132.999 Y121.145 E5.48512
G1 X133.2 Y121.792 E5.50105
G1 X133.352 Y122.717 E5.52309
G1 X133.388 Y123.165 E5.53366
G1 X133.402 Y123.843 E5.54961
G1 X133.336 Y124.518 E5.56555
G1 X133.179 Y125.226 E5.58261
G1 X133.024 Y125.761 E5.5957
G1 X132.797 Y126.4 E5.61165
G1 X132.497 Y127.008 E5.62759
G1 X132.048 Y127.68 E5.64659
G1 X131.692 Y128.14 E5.66027
G1 X131.246 Y128.651 E5.67622
G1 X130.744 Y129.106 E5.69215
G1 X130.131 Y129.535 E5.70974
G1 X129.504 Y129.916 E5.72699
G1 X128.905 Y130.233 E5.74293
G1 X128.273 Y130.478 E5.75887
G1 X127.722 Y130.624 E5.77227
G1 X127.031 Y130.772 E5.78888
G1 X126.361 Y130.875 E5.80482
G1 X125.684 Y130.898 E5.82075
G1 X125.314 Y130.877 E5.82946
G1 X124.644 Y130.817 E5.84528
G1 X123.974 Y130.717 E5.86121
G1 X123.21 Y130.5 E5.87988
G1 X122.857 Y130.373 E5.88871
G1 X122.234 Y130.107 E5.90463
G1 X121.549 Y129.703 E5.92333
G1 X121.198 Y129.462 E5.93334
G1 X120.663 Y129.046 E5.94928
G1 X120.18 Y128.57 E5.96522
G1 X119.91 Y128.246 E5.97514
G1 X119.661 Y127.925 E5.98469
G1 X119.277 Y127.366 E6.00064
G1 X118.963 Y126.766 E6.01656
G1 X118.765 Y126.265 E6.02923
G1 X118.631 Y125.874 E6.03895
G1 X118.449 Y125.221 E6.05489
G1 X118.346 Y124.551 E6.07083
G1 X118.321 Y123.899 E6.08617
G1 X118.331 Y123.381 E6.09835
G1 X118.384 Y122.705 E6.11429
G1 X118.516 Y122.04 E6.13024
G1 X118.756 Y121.32 E6.14808
G1 X118.982 Y120.766 E6.16215
G1 X119.275 Y120.155 E6.17808
G1 X119.637 Y119.582 E6.19402
G1 X120.18 Y118.934 E6.2139
G1 X120.738 Y118.359 E6.23274
G0 F3600 X121.096 Y118.707
G1 F1800 X121.575 Y118.271 E6.24797
G1 X122.331 Y117.765 E6.26936
G1 X122.734 Y117.543 E6.28018
G1 X123.319 Y117.266 E6.29539
G1 X123.832 Y117.091 E6.30814
G1 X124.314 Y116.954 E6.31992
G1 X124.946 Y116.816 E6.33513
G1 X125.703 Y116.754 E6.35299
G1 X126.271 Y116.749 E6.36635
G1 X126.918 Y116.783 E6.38158
G1 X127.555 Y116.897 E6.3968
G1 X127.96 Y117.013 E6.4067
G1 X128.476 Y117.183 E6.41948
G1 X129.077 Y117.423 E6.43469
G1 X129.645 Y117.735 E6.44993
G1 X130.008 Y117.988 E6.46034
G1 X130.415 Y118.297 E6.47235
G1 X130.905 Y118.719 E6.48756
G1 X131.479 Y119.38 E6.50814
G1 X131.718 Y119.707 E6.51766
G1 X132.067 Y120.253 E6.5329
G1 X132.39 Y120.949 E6.55094
G1 X132.531 Y121.322 E6.56032
G1 X132.722 Y121.941 E6.57555
G1 X132.853 Y122.757 E6.59498
G1 X132.889 Y123.205 E6.60555
G1 X132.901 Y123.853 E6.62079
G1 X132.833 Y124.497 E6.63602
G1 X132.699 Y125.087 E6.65024
G1 X132.544 Y125.622 E6.66334
G1 X132.325 Y126.232 E6.67858
G1 X132.034 Y126.81 E6.6938
G1 X131.653 Y127.374 E6.7098
G1 X131.297 Y127.834 E6.72348
G1 X130.87 Y128.321 E6.7387
G1 X130.386 Y128.752 E6.75394
G1 X129.871 Y129.108 E6.76866
G1 X129.244 Y129.489 E6.78592
G1 X128.671 Y129.79 E6.80113
G1 X128.065 Y130.019 E6.81637
G1 X127.618 Y130.136 E6.82723
G1 X126.927 Y130.284 E6.84385
G1 X126.286 Y130.38 E6.85909
G1 X125.359 Y130.379 E6.88088
G1 X124.689 Y130.319 E6.8967
G1 X124.048 Y130.222 E6.91194
G1 X123.38 Y130.03 E6.92829
G1 X123.027 Y129.903 E6.93711
G1 X122.432 Y129.647 E6.95234
G1 X121.832 Y129.291 E6.96874
G1 X121.481 Y129.05 E6.97875
G1 X120.971 Y128.651 E6.99398
G1 X120.514 Y128.192 E7.00921
G1 X120.305 Y127.94 E7.01691
G1 X120.056 Y127.619 E7.02646
G1 X119.691 Y127.083 E7.04171
G1 X119.395 Y126.507 E7.05693
G1 X119.238 Y126.103 E7.06713
G1 X119.104 Y125.712 E7.07684
G1 X118.932 Y125.087 E7.09209
G1 X118.838 Y124.447 E7.1073
G1 X118.821 Y123.909 E7.11995
G1 X118.831 Y123.391 E7.13214
G1 X118.883 Y122.745 E7.14737
G1 X119.015 Y122.111 E7.1626
G1 X119.219 Y121.509 E7.17755
G1 X119.445 Y120.955 E7.19162
G1 X119.726 Y120.371 E7.20685
G1 X120.077 Y119.827 E7.22208
G1 X120.538 Y119.282 E7.23886
G1 X121.096 Y118.707 E7.2577
G0 F3600 X121.455 Y119.055
G1 F1800 X121.912 Y118.642 E7.27218
G1 X122.572 Y118.203 E7.29082
G1 X122.975 Y117.981 E7.30164
G1 X123.533 Y117.719 E7.31614
G1 X123.968 Y117.572 E7.32693
G1 X124.45 Y117.435 E7.33871
G1 X125.053 Y117.305 E7.35322
G1 X125.707 Y117.254 E7.36864
G1 X126.275 Y117.249 E7.382
G1 X126.89 Y117.284 E7.39648
G1 X127.496 Y117.398 E7.41098
G1 X127.803 Y117.488 E7.4185
G1 X128.319 Y117.658 E7.43128
G1 X128.891 Y117.888 E7.44577
G1 X129.428 Y118.19 E7.46026
G1 X129.705 Y118.386 E7.46824
G1 X130.112 Y118.695 E7.48025
G1 X130.578 Y119.098 E7.49474
G1 X131.075 Y119.675 E7.51265
G1 X131.314 Y120.002 E7.52217
G1 X131.644 Y120.522 E7.53665
G1 X131.922 Y121.125 E7.55226
G1 X132.063 Y121.498 E7.56164
G1 X132.243 Y122.088 E7.57614
G1 X132.355 Y122.798 E7.59305
G1 X132.391 Y123.246 E7.60361
G1 X132.4 Y123.862 E7.6181
G1 X132.33 Y124.474 E7.63258
G1 X132.218 Y124.948 E7.64404
G1 X132.063 Y125.483 E7.65713
G1 X131.854 Y126.062 E7.67161
G1 X131.571 Y126.61 E7.68611
G1 X131.257 Y127.068 E7.69916
G1 X130.901 Y127.528 E7.71284
G1 X130.494 Y127.99 E7.72732
G1 X130.029 Y128.395 E7.74182
G1 X129.612 Y128.68 E7.75369
G1 X128.985 Y129.061 E7.77095
G1 X128.438 Y129.346 E7.78545
G1 X127.86 Y129.558 E7.79992
G1 X127.513 Y129.647 E7.80835
G1 X126.822 Y129.795 E7.82496
G1 X126.212 Y129.884 E7.83946
